!!!!SEGMENT: pl-wtm--r-1175--001_lessel-franciszek--quartetto-no-6-allegro-molto.krn
!!!cenid: 18xx:1625
!!!COM: Lessel, Franciszek
!!!COM-rismid: pe30004332
!!!CDT: 1780-1838/12/26
!!!CNT: Polish
!!!OPR: Quartetto No 6
!!!OTL: Allegro molto
!!!OMV: 001
!!!PDT:
!!!AGN: Secular; String quartet
!!!SMS-siglum: PL-Wtm
!!!SMS-shelfmark: R 1175
!!!SMS-shelfwork: 001-001 M
!!!SMS-variant:
!!!SMS-altvar:
!!!NIFC-rismid: 1001085812
!!!URL-scan: http://repozytorium.nifc.pl/skany/pl-wtm-nut--r1175
!!!ONB-nifc: UWAGA: części Kwartetu: 1. Allegro di molto (łącznie z początkowym Adagio), 2. Andante, 3. Menuetto, 4. Fuga
!!!key:
**kern	**dynam
*Iviola	*
*I"Viola.	*
*I'Va	*
*clefC3	*
*k[f#c#]	*
*D:	*
*M3/4	*
=1	=1
*2\right	*
!LO:TX:a:t=Adagio	!
2d\ 2A\ 2D;\	fz
4r	.
=2	=2
2G/ 2E;/	fz
4r	.
=3	=3
2d\	.
4c#\	.
=4	=4
8d'\	.
8r	.
8a\ 8d'\	.
8r	.
4r	.
=5	=5
!	!LO:DY:t=po.
(2g\	p
4f#\)	.
!!LO:LB:g=original
=6	=6
(2e\	.
4d\)	.
=7	=7
2c#;\	fz
(4E/	.
=8	=8
8F#/L)	.
8F#'/J	.
8r	.
8G/	.
8r	.
!LO:TX:a:t=attaca	!
8G/	.
!!LO:LB:g=original
=9||	=9||
*k[f#c#]	*
*M3/4	*
!LO:TX:b:t=m.v.	!
!LO:TX:a:t=All&colon;di \nmolto	!
4F#/	.
4r	.
4r	.
=10	=10
!LO:TX:a:t=3	!
2.r	.
=11	=11
2.r	.
=12	=12
2.r	.
=13	=13
4A/ 4E/	.
4r	.
4r	.
=14	=14
8c#\L	.
8A\	.
8c#\	.
8A\	.
8c#\	.
8A\J	.
=15	=15
*tremolo	*
8d\L	.
8A\	.
8d\	.
8A\J	.
8e\L	.
8A\J	.
*Xtremolo	*
!!LO:LB:g=original
=16	=16
4f#\	.
4r	.
4r	.
=17	=17
4r	.
!	!LO:DY:t=po
4cc#\	p
4cc#\	.
=18	=18
4cc#\	.
4cc#\	.
4cc#\	.
=19	=19
4dd\	.
4dd\	.
4r	.
=20	=20
4dd\	.
4dd\	.
4r	.
=21	=21
4r	.
4cc#\	.
4cc#\	.
=22	=22
4cc#\	.
4cc#\	.
4cc#\	.
!!LO:LB:g=original
=23	=23
4dd\	.
4dd\	.
4r	.
=24	=24
4A/ 4F#/	.
4A/ 4F#/	.
4r	.
=25	=25
4G/ 4E/	.
4G/ 4E/	.
4r	.
=26	=26
4G/ 4E/	.
4G/ 4E/	.
4r	.
=27	=27
4F#/	.
(8G#X/L	.
8A/)	.
(8E#X/	.
8F#/J)	.
=28	=28
4D/	.
4r	.
4r	.
!!LO:LB:g=original
=29	=29
!	!LO:DY:t=ff.
2B/	ff
4B/	.
=30	=30
2A/	.
8qG/	.
(8G/L	.
16F#/L	.
16G/JJ)	.
=31	=31
2F#/	.
4e\	.
=32	=32
2d\	.
8qd/	.
8c#\L	.
16B\L	.
16c#\JJ	.
=33	=33
4B/	.
(8e#X\L	.
8f#\)	.
(8c#\	.
8d\J)	.
=34	=34
2B/	.
4b\	.
!!LO:LB:g=original
=35	=35
2a\	.
8qa/	.
8g\L	.
16f#\L	.
16g\JJ	.
=36	=36
4f#\	.
4r	.
4r	.
=37	=37
4r	.
!	!LO:DY:t=po.
4g\	p
4g\	.
=38	=38
4g\	.
4g\	.
4e\	.
=39	=39
4d\	.
4d\	.
4r	.
=40	=40
4d\	.
4d\	.
4r	.
=41	=41
4r	.
4d\	.
4d\	.
!!LO:LB:g=original
=42	=42
4d\	.
4d\	.
4d\	.
=43	=43
4c#\	.
4c#\	.
4r	.
=44	=44
4E/	.
4E/	.
4r	.
=45	=45
4r	.
4f#\	.
8dd\L	.
8cc#\J	.
=46	=46
8b\L	.
8a\	.
8g#X\	.
8f#\	.
8e\	.
8d\J	.
=47	=47
4c#\	.
(8d#X\L	.
8e\)	.
(8B#X\	.
8c#\J)	.
!!LO:LB:g=original
=48	=48
2Bn/	.
4B/	.
=49	=49
4A/	.
(8d#X/L	.
8e/)	.
(8B#X/	.
8c#/J)	.
=50	=50
2Bn/	.
4B/	.
=51	=51
4c#\	.
4r	.
4r	.
=52	=52
!LO:TX:a:t=P:mixedbeam:problem	!
8D/L	.
8d\	.
8c#\	.
8B\	.
8A\	.
8B\J	.
=53	=53
(4c#\	.
4e\	.
4d\)	.
!!LO:LB:g=original
=54	=54
4c#\	.
4r	.
4r	.
=55	=55
!LO:TX:a:t=2	!
2.r	.
=56	=56
2.r	.
=57	=57
4r	.
!	!LO:DY:t=po
4ee\	p
4ee\	.
=58	=58
4ee\	mf
4r	.
4r	.
=59	=59
4a\ 4e\ 4A\	.
4r	.
4r	.
=60	=60
4r	.
(8e#X\L	.
8f#\)	.
(8c#\	.
8d\J)	.
=61	=61
8e\	<
4e\	.
4e\	.
8e\	.
!!LO:LB:g=original
=62	=62
8e\	.
4e\	.
4e\	.
8e\	.
=63	=63
8e\	.
4e\	fz
4e\	.
8e\	.
=64	=64
8e\	.
4e\	fz
4e\	.
8e\	.
=65	=65
4e\	.
4c#\	.
4r	.
=66	=66
4c#\	.
4c#\	.
4r	.
=67	=67
4c#\	.
4c#\	.
4c#\	.
!!LO:LB:g=original
=68	=68
4d\	.
4r	.
4r	.
=69	=69
4r	.
4r	.
[4A/	fz
=70	=70
4A/]	.
4r	.
4r	.
=71	=71
4r	.
!	!LO:DY:t=po.
(8d#X\L	p
8e\	.
8c#\)	.
8A\J	.
=72	=72
(4B\	.
4e\	.
4d\	.
=73	=73
4c#\	.
4d\	.
4e\)	.
!!LO:PB:g=original
=74	=74
4r	.
4e\	.
4e\	.
=75	=75
4e\	.
4e\	.
4e\	.
=76	=76
4e\	.
4e\	.
4r	.
=77	=77
4e\	.
4e\	.
4r	.
=78	=78
!	!LO:DY:rj:t=fo
(8c#\L	f
8d\	.
8c#\	.
8d\	.
8e\	.
8d\J)	.
=79	=79
8c#\L	.
8d\	.
8c#\	.
8d\	.
8e\	.
8d\J	.
!!LO:LB:g=original
=80	=80
4e\	.
4e\	.
4r	.
=81	=81
4d\	.
4d\	.
4r	.
=82	=82
4r	.
(4e\	.
4d\)	.
=83	=83
!	!LO:DY:t=po
4c#\	p
(8d#X\L	.
8e\)	.
(8B#X\	.
8c#\J)	.
=84	=84
2A/	.
4a\	.
=85	=85
2.g#X\	fp
=86	=86
2.g#X\	fzp
!!LO:LB:g=original
=87	=87
4a\	.
4r	.
4r	.
=88	=88
!LO:TX:a:t=1	!
2.r	.
=89	=89
(2fn\	>
4e\)	]
=90	=90
2fn\	.
4e\	.
=91	=91
4e\	.
4r	.
4r	.
=92	=92
8A/	rf
4A/	.
4A/	.
8A/	.
=93	=93
4A/	.
4r	.
4r	.
!!LO:LB:g=original
=94	=94
4r	.
(8c#\L	fz
8d\)	.
(8c#\	.
8d\J)	.
=95	=95
4c#\	.
4r	.
4r	.
=96	=96
4r	.
4e\	.
4e\	.
=97	=97
4e\	.
4r	.
4r	.
=98	=98
*Xtuplet	*
!	!LO:DY:rj:t=fo
12E/L	f
12F#/	.
12G#X/J	.
12A/L	.
12B/	.
12c#/J	.
4d\	.
!!LO:LB:g=original
=99	=99
4c#\	.
(8d#X\L	.
8e\)	.
(8B#X\	.
8c#\J)	.
=100	=100
8G#X/L	.
8A/J	.
4r	.
4r	.
=101:|!|:	=101:|!|:
!LO:TX:a:t=2	!
2.r	.
=102	=102
2.r	.
=103	=103
4r	.
!	!LO:DY:t=po.
(4G#X/	p
4A/)	.
=104	=104
4E/	.
4E#X/	.
4F#/	.
!!LO:LB:g=original
=105	=105
2D/	.
[4d\	.
=106	=106
4d\]	.
4d\	.
4d\	.
=107	=107
4c#\	.
4c#\	.
4r	.
=108	=108
4c#\	.
4c#\	.
4r	.
=109	=109
4r	.
(4fn\	.
4d\)	.
=110	=110
(4B\	.
4d\)	.
4d\	.
!!LO:LB:g=original
=111	=111
4cn\	.
4c\	<
4r	.
=112	=112
4cn\	[
4c\	.
4r	.
=113	=113
!	!LO:DY:rj
[2.B-X/ [>2.Cn/	fz
=114	=114
!	!LO:HP:a
2.B-X/] 2.CnX/]	>
=115	=115
2.G/ [2.Cn/	]
=116	=116
2.G/ 2.CnX/]	.
=117	=117
4Fn/	.
4r	.
4r	.
!!LO:LB:g=original
=118	=118
4r	.
!	!LO:DY:t=po
4a\	p
4a\	.
=119	=119
(8f#X\L	.
8g\	.
8f#\	.
8g\J)	.
(8e\L	.
8fn\J)	.
=120	=120
2e\	.
4d\	.
=121	=121
4cn\	.
4r	.
4r	.
=122	=122
!LO:TX:a:t=1.	!
2.r	.
=123	=123
4cn\	.
(8f#X\L	.
8g\)	.
(8e\	.
8fn\J)	.
!!LO:LB:g=original
=124	=124
2e\	.
4ee\	.
=125	=125
4ffn\	.
4r	.
4r	.
=126	=126
2.r	.
=127	=127
4r	.
4d\	.
4e\	.
=128	=128
[2.fn\	.
=129	=129
4fnX\]	.
[2f\ 2G\	fz
=130	=130
4fnX\]	.
[2f\ 2G\	fz
!!LO:LB:g=original
=131	=131
4fn\] 4G\	.
4f\ 4G\	.
4r	.
=132	=132
4r	.
[2G/	.
=133	=133
4G/]	.
4Cn/	.
4r	f
=134	=134
4D/	.
(8c#X\L	.
8d\)	.
(8A\	.
8B\J)	.
=135	=135
4E/	.
4e\	.
4r	.
!!LO:LB:g=original
=136	=136
4Fn/	.
(8e\L	.
8fn\)	.
(8c#X\	.
8d\J)	.
=137	=137
4G/	.
4g\	.
4r	.
=138	=138
4r	.
(8cn\L	.
8d\	.
8c\	.
8d\J)	.
=139	=139
!	!LO:DY:rj
(8A\L	fz
8d\	.
8cn\	.
8d\	.
8A\	.
8d\J)	.
=140	=140
4B/	.
4b\	.
4a\	.
=141	=141
4g\	.
4r	.
4f#X\	.
!!LO:LB:g=original
=142	=142
4e\	.
4r	.
!	!LO:HP:t=crese
4e\	<
=143	=143
4e\	.
4e\	.
4e\	.
=144	=144
4e\	.
4r	.
4e\	<
=145	=145
4e\	.
4e\	.
4e\	[
=146	=146
4e\	.
4r	.
4r	.
=147	=147
4r	.
4r	.
4a\	.
=148	=148
[2.a\	.
=149	=149
4a\]	.
4r	.
!LO:TX:b:t=V&colon;S&colon;	!
4r	.
!!LO:PB:g=original
=150	=150
4r	.
4e\	p
4e\	.
=151	=151
4e\	.
4e\	.
4e\	.
=152	=152
4e\	.
4e\	.
4r	.
=153	=153
!	!LO:HP:b:t=crescendo .
4e\	<
4e\	.
4r	.
=154	=154
4e\	.
4r	.
4e\	.
=155	=155
4e\	.
4r	.
4e\	.
=156	=156
4e\	.
4e\	.
4r	.
=157	=157
4e\	.
4e\	.
4r	.
!!LO:LB:g=original
=158	=158
4e\	.
4e\	<
4r	.
=159	=159
4e\	.
4e\	.
4e\	[
=160	=160
!	!LO:DY:t=fo
4d\	f
(8e#X\L	.
8f#\)	.
(8c#X\	.
8d\J)	.
=161	=161
2B/	.
4b\	.
=162	=162
2a\	.
8qa/	.
(8g\L	.
16f#\L	.
16g\JJ)	.
=163	=163
4f#\	.
4r	.
4r	.
=164	=164
4r	.
4f#\	.
4f#\	.
!!LO:LB:g=original
=165	=165
4f#\	.
4f#\	.
4f#\	.
=166	=166
4f#\	.
4f#\	.
4f#\	.
=167	=167
4f#\	.
4r	.
4r	.
=168	=168
4r	.
.	fz
(8g\L	.
8f#\	.
8g\	.
8e\J)	.
=169	=169
4f#\	.
4r	.
4r	.
=170	=170
[2.e\	>
=171	=171
4e\]	.
4r	]
4r	.
!!LO:LB:g=original
=172	=172
[2.d\	>
=173	=173
4d\]	]
4r	.
4r	.
=174	=174
2.Cn/	.
=175	=175
4D/	.
(8B/L	.
8cn/)	.
(8G#X/	.
8A/J)	.
=176	=176
4B/	.
4b\	.
4r	.
=177	=177
!LO:TX:a:t=4	!
2.r	.
=178	=178
2.r	.
=179	=179
2.r	.
=180	=180
2.r	.
=181	=181
4r	.
4r	.
4Cn/	.
!!LO:LB:g=original
=182	=182
(8B/L	.
8cn/)	.
(8G#X/	.
8A/J)	.
4D'/	.
=183	=183
4d'\	.
4r	.
4E/	.
=184	=184
(8d#X\L	.
8e\)	.
(8B\	.
8cn\J)	.
4F#/	.
=185	=185
4f#\	.
4r	.
4G/	.
=186	=186
(8f#\L	.
8g\)	.
(8d#X\	.
8e\)	.
(8B\	.
8c#X\J)	.
!!LO:LB:g=original
=187	=187
2d/ 2A/	.
4r	.
=188	=188
!	!LO:DY:rj
2B/ 2D;/	fz
!LO:TX:b:t=adagio	!
4r	.
=189	=189
8A/L	.
!	!LO:DY:t=po
8A/J	p
8r	.
8G/	.
8r	.
8E/	.
=190	=190
!LO:TX:b:t=a tempo	!
4F#/	.
4r	.
4r	.
=191	=191
(8F#/L	.
8D/	.
8F#/	.
8D/	.
8F#/	.
8D/J)	.
=192	=192
*tremolo	*
8G/L	.
8D/	.
8G/	.
8D/	.
8G/	.
8D/J	.
*Xtremolo	*
=193	=193
4F#/	.
4r	.
4r	.
=194	=194
!LO:TX:a:t=2	!
2.r	.
=195	=195
2.r	.
=196	=196
8dd\L	.
8cc#\	.
8b\	.
8a\	.
8g\	.
8f#\J	.
=197	=197
4g\	.
!	!LO:DY:t=po
4a\ 4g\	p
4a\ 4g\	.
=198	=198
4a\ 4g\	.
4a\ 4g\	.
4a\ 4g\	.
=199	=199
4a\ 4f#\	.
4a\ 4f#\	.
4r	.
=200	=200
4a\ 4f#\	.
4a\ 4f#\	.
4r	.
!!LO:LB:g=original
=201	=201
4r	.
4A/	.
4A/	.
=202	=202
4A/	.
4A/	<
4A/	.
=203	=203
4A/	.
4A/	.
4r	[
=204	=204
4A/ 4D/	.
4A/ 4D/	.
4r	.
=205	=205
4r	.
[2B/	fz
=206	=206
4B/]	.
4B/	.
4B/	.
=207	=207
4B/	.
4a\	.
4a\	.
!!LO:LB:g=original
=208	=208
4a\	.
(8g#X\L	.
8a\)	.
(8e\	.
8f#\J)	.
!!pagebreak:original
=209	=209
2d\	.
4dd\	.
=210	=210
2cc#\	.
8qcc#/	.
(8b\L	.
16a\L	.
16b\JJ)	.
=211	=211
2a\	.
8qa/	.
(8g\L	.
16f#\L	.
16g\JJ)	.
=212	=212
4f#\	.
4r	.
4r	.
=213	=213
4r	.
(4A'/	.
4A'/)	.
!!LO:LB:g=original
=214	=214
4A/	.
4A/	.
4A/	.
=215	=215
4A/	.
4A/	.
4A/	.
=216	=216
4A/	.
[2A/	.
.	fz
=217	=217
4A/]	.
[2A/	.
.	fz
=218	=218
4A/]	.
4r	.
4r	.
=219	=219
4r	.
4r	.
(4cn\	>]
=220	=220
4B\)	.
4B\	.
4r	.
!!LO:LB:g=original
=221	=221
4A/	.
4A/	.
4r	.
=222	=222
4f#/ 4A/ 4D/	.
!	!LO:DY:t=fo
4r	f
4r	.
=223	=223
4F#/	.
4G/	.
4A/ 4D/	.
=224	=224
4B/ 4D/	.
4r	.
4r	.
=225	=225
!LO:TX:a:t=1.	!
2.r	.
=226	=226
!	!LO:DY:t=po
4r	p
4e\	.
4e\	.
!!LO:LB:g=original
=227	=227
4r	.
4e\	.
4e\	.
=228	=228
4r	.
4d\	.
4d\	.
=229	=229
4r	.
4d\	.
4d\	.
=230	=230
4r	.
4e\	.
4e\	.
=231	=231
4r	.
4e\	.
4e\	.
=232	=232
4r	.
4d\	.
4d\	.
!!LO:PB:g=original
=233	=233
4r	.
4f#\	p
4f#\	.
=234	=234
[2.g\	<
=235	=235
2.g\_	.
=236	=236
2.g\_	<
=237	=237
2.g\]	[
=238	=238
2a\	.
4b\	.
!	!LO:DY:t=fo.
.	f
=239	=239
4a\	.
4f#\	.
4e\ 4A\	.
!!LO:LB:g=original
=240	=240
4f#\ 4A\	.
4r	.
4r	.
=241	=241
!LO:TX:a:t=1	!
2.r	.
=242	=242
(2B-X/	>
4A/)	]
=243	=243
(2B-X/	>
4A/)	]
=244	=244
4A/	.
8G#X/L	.
8A/	.
(8E/	.
8F#/J)	.
=245	=245
2D/	.
4d\	.
!!LO:LB:g=original
=246	=246
2.c#\	>]
=247	=247
2.c#\	>]
=248	=248
4d\	.
4r	.
4r	.
=249	=249
4r	.
4F#/	.
4f#\	.
=250	=250
!	!LO:HP:t=dimin
4g'\	>
(4g\	.
4f#\)	.
=251	=251
4e'\	.
(4e\	.
4d\)	.
!!LO:LB:g=original
=252	=252
4c#\	.
4r	.
4r	.
=253	=253
4r	.
4r	.
(8f#\L	.
8g\J)	.
=254	=254
4G/	.
4r	.
4r	>
=255	=255
4r	.
4r	]
(8G#X/L	.
8A/J)	.
=256	=256
*^	*
4a\	4ryy	.
4r	4ryy	.
!	!LO:N:xstem	!LO:DY:t=fo.
4A\	4e\	f
*v	*v	*
!!LO:LB:g=original
=257	=257
4f#\ 4A\	.
(8G#X/L	.
8A/)	.
(8E#X/	.
8F#/J)	.
=258	=258
4D/	.
4r	.
!LO:TX:b:t=Andante.	!
4r	.
==	==
*-	*-
!!!RDF**kern: > = above
!!!RDF**kern: < = below
!!!EED: Leszek Kubiak
!!!EST: 2021-04-13
!!!AIN: 1 viola
!!!ENC: Berenika Jozajtis
!!!END: 2021-03-27
